symbols/web/drive_folder_upload/materialsymbolsoutlined/drive_folder_upload_wght500fill1_20px.svg

<svg xmlns="http://www.w3.org/2000/svg" height="20" width="20"><path d="M9.125 14.167h1.75v-3.334l1.292 1.292 1.229-1.229L10 7.5l-3.396 3.396 1.229 1.229 1.292-1.292Zm-5.646 2.666q-.833 0-1.406-.573-.573-.572-.573-1.406V5.062q0-.833.573-1.406t1.406-.573h4.688L10 4.917h6.521q.833 0 1.406.573.573.572.573 1.406v7.958q0 .834-.573 1.406-.573.573-1.406.573Z"/></svg>

<svg xmlns="http://www.w3.org/2000/svg" height="20" width="20"><path d="M9.125 14.167H10.875V10.833L12.167 12.125L13.396 10.896L10 7.5L6.604 10.896L7.833 12.125L9.125 10.833ZM3.479 16.833Q2.646 16.833 2.073 16.26Q1.5 15.688 1.5 14.854V5.062Q1.5 4.229 2.073 3.656Q2.646 3.083 3.479 3.083H8.167L10 4.917H16.521Q17.354 4.917 17.927 5.49Q18.5 6.062 18.5 6.896V14.854Q18.5 15.688 17.927 16.26Q17.354 16.833 16.521 16.833Z"/></svg>
